img/svg/icon-font/letter-open.svg

<svg width="22" height="22" viewBox="0 0 22 22" fill="none" xmlns="http://www.w3.org/2000/svg">
<path d="M14.0508 3.86719H7.94922C7.47455 3.86719 7.08984 4.25189 7.08984 4.72656C7.08984 5.20123 7.47455 5.58594 7.94922 5.58594H14.0508C14.5255 5.58594 14.9102 5.20123 14.9102 4.72656C14.9102 4.25189 14.5255 3.86719 14.0508 3.86719Z" fill="#4C51CB"/>
<path d="M12.332 7.30469H7.94922C7.47455 7.30469 7.08984 7.68939 7.08984 8.16406C7.08984 8.63873 7.47455 9.02344 7.94922 9.02344H12.332C12.8067 9.02344 13.1914 8.63873 13.1914 8.16406C13.1914 7.68939 12.8067 7.30469 12.332 7.30469Z" fill="#4C51CB"/>
<path d="M20.2812 14.2656C20.2812 14.7403 20.666 15.125 21.1406 15.125C21.6153 15.125 22 14.7403 22 14.2656V8.28021C22 7.10277 21.408 6.02049 20.4162 5.38536L18.3477 4.06088V0.859375C18.3477 0.384705 17.963 0 17.4883 0H4.51172C4.03705 0 3.65234 0.384705 3.65234 0.859375V4.05719L1.58514 5.37949C0.592667 6.01445 0 7.09689 0 8.27534V18.5625C0 20.458 1.54201 22 3.4375 22H18.5625C20.458 22 22 20.458 22 18.5625C22 18.0878 21.6153 17.7031 21.1406 17.7031C20.666 17.7031 20.2812 18.0878 20.2812 18.5625C20.2812 19.5102 19.5102 20.2812 18.5625 20.2812H3.4375C2.48984 20.2812 1.71875 19.5102 1.71875 18.5625V9.39455L9.18491 14.037C9.74467 14.3851 10.3723 14.5592 11 14.5592C11.6276 14.5592 12.2553 14.3851 12.8153 14.037L20.2812 9.39438V14.2656ZM3.65234 8.57294L1.90892 7.48882C2.04538 7.22362 2.25032 6.99434 2.51132 6.8275L3.65234 6.09753V8.57294ZM16.6289 9.64162L11.9075 12.5774C11.3478 12.9255 10.6521 12.9255 10.0925 12.5774L5.37109 9.64162V1.71875H16.6289V9.64162ZM18.3477 8.57277V6.10173L19.4893 6.83287C19.7488 6.99904 19.9528 7.22664 20.0891 7.48999L18.3477 8.57277Z" fill="#4C51CB"/>
</svg>

<svg width="22" height="22" fill="none" xmlns="http://www.w3.org/2000/svg"><path d="M14.05 3.867h-6.1a.86.86 0 100 1.719h6.1a.86.86 0 100-1.719zm-1.718 3.438H7.949a.86.86 0 100 1.718h4.383a.86.86 0 100-1.718z" fill="#4C51CB"/><path d="M20.281 14.266a.86.86 0 101.719 0V8.28c0-1.177-.592-2.26-1.584-2.895l-2.068-1.324V.859a.86.86 0 00-.86-.859H4.512a.86.86 0 00-.86.86v3.197L1.585 5.38A3.423 3.423 0 000 8.275v10.287A3.441 3.441 0 003.438 22h15.124A3.441 3.441 0 0022 18.562a.86.86 0 10-1.719 0 1.72 1.72 0 01-1.718 1.72H3.438a1.72 1.72 0 01-1.72-1.72V9.396l7.467 4.642c.56.348 1.187.522 1.815.522.628 0 1.255-.174 1.815-.522l7.466-4.643v4.872zM3.652 8.573L1.91 7.489c.136-.265.341-.495.602-.662l1.141-.73v2.476zM16.63 9.642l-4.722 2.935a1.708 1.708 0 01-1.815 0l-4.72-2.935V1.719H16.63v7.923zm1.719-1.07v-2.47l1.141.73c.26.167.464.395.6.658l-1.741 1.083z" fill="#4C51CB"/></svg>
